X:1
T:Title
%%score 1 { 2 | 3 }
L:1/8
Q:1/4=113
M:3/4
K:E
V:1 treble nm="Grand Piano, Soprano"
V:2 bass nm="Choir Pad, Redeemed by the Blood"
V:3 bass 
V:1
 [EG]2 [EB]3 [EB] | [EB]2 [EG][EG] z2 | [EG]2 [EG]3 [EG] | [EG]2 [CE]4 | [CE]2 [DF]3 [DF] | %5
w: By~Arranged~by~R.~E.~McNeill * *|||||
 [DF]2 [DF]2 [EG]2 | [FA]2 [FA]2 [EG]2 | [DF]2 [EG]4 | [EG]2 [GB]3 [GB] | [GB]2 [EG][EG] z2 | %10
w: |||||
 [EG]2 [EA]3 [EA] | [EA]2 [Ec]4 | [Ec][Ec] [EB]3 [EB] | [EB]2 [EG][EG] z2 | E[EF] [EG]2 [EG]2- | %15
w: |||||
 [EG][B,F] [B,E]4 | [B,E]>[EG] [GB]4 | [GB]>[GB] [EG]4 | [EG]2 [EG]4 | [EG]>[EG] [GB]4 | %20
w: |||||
 [GB]2 [Ge]3 [Bd] | [Ac]2 [GB] [EG]3 | [Ec][FA] [EG]2 [EG]2- | [EG][B,F] [B,E]4- | [B,E]4 z2 |] %25
w: |||||
V:2
 B,2 G,3 G, | G,2 B,B, z2 | B,2 C3 C | C2 G,4 | G,2 B,3 B, | B,2 B,2 B,2 | B,2 B,2 B,2 | B,2 B,4 | %8
 B,2[K:treble] E3 E | E2 B,B, z2 | B,2 C3 C | C2 A,4 | A,A, G,3 G, | G,2 B,B, z2 | ^A,A, B,2 B,2- | %15
 B,A, G,4 | G,>B,[K:treble] E4 | E>E B,4 | B,2[K:bass] B,4 | B,>B, E4 | B,2 B,3 B, | E2 E B,3 | %22
 EC[K:bass] B,2 B,2- | B,A, G,4- | G,4 z2 |] %25
V:3
 E,2 E,3 E, | E,2 E,E, z2 | E,2 C,3 C, | C,2 C,4 | C,2 B,,3 B,, | B,,2 B,,2 B,,2 | B,,2 B,,2 B,,2 | %7
 B,,2 E,4 | E,2 E,3 E, | E,2 E,E, z2 | E,2 A,,3 A,, | A,,2 A,,4 | z2 E,3 E, | E,2 E,E, z2 | %14
 C,C, B,,2 B,,2- | B,,B,, E,4 | E,>E, E,4 | E,>E, E,4 | E,2 E,4 | E,>E, E,4 | E,2 E,3 E, | %21
 E,2 E, E,3 | A,,A,, B,,2 B,,2- | B,,B,, E,4- | E,4 z2 |] %25

